!!!COM: Music21
!!!OTL: Himno Galego
!!!OMV: pezas_marchas_himno-galego_himno-galego-partitura.musicxml
**kern
*I"Bagpipes
*I'Bag
*clefG^2
*k[]
*M4/4
*met(c)
=1
!LO:TX:a:B:t=Andante
*MM96
!LO:TX:a:t=[quarter]=96
2cc
8eeL
8gg
8ff
8eeJ
=
1dd
=
2cc
8eeL
8gg
8ff
8eeJ
=
1dd
=
2cc
2ee
=
8ffL
8gg
8aa
8ffJ
4ee
4dd
=
2gg
2bb
=
[2ccc
8ccc]
8r
8eeL
8ffJ
=
4gg
4gg
4gg
4gg
!!linebreak:original
=
8ggL
8aa
8gg
8ffJ
4ee
8ggL
8eeJ
=
4cc
8ddL
8eeJ
4ff
4ee
=
2ee
4dd
8eeL
8ffJ
=
4gg
4gg
4gg
4gg
=
8ggL
8aa
8gg
8ffJ
4ee
4cc
=
4aa
4aa
8ggL
8ff
8ee
8ddJ
=
2.cc
8ddL
8eeJ
!!linebreak:original
=
4ff
4ff
4gg
8ffL
8eeJ
=
2dd
4dd
8eeL
8ffJ
=
4gg
4gg
8ggL
8aa
8gg
8ffJ
=
2ee
4ee
8ccL
8ddJ
=
4ee
4ee
4ff
4gg
=
8aaL
8bb
8ccc
8bbJ
4aa
4aa
=
8ggL
8aa
8gg
8ffJ
4ee
4dd
=
2cc
4cc
4gg
!!linebreak:original
=
4.cc
8dd
8ee-XL
8gg
8ff
8ee-J
=
2dd
4dd
4gg
=
4.cc
8dd
8ee-XL
8gg
8ff
8ee-J
=
2dd
4dd
8bL
8ddJ
=
4gg
4gg
4aa
4aa
=
4.bb
8aa
4gg
4dd
=
8ddL
8ee
8dd
8ccJ
4b
4aa
!!linebreak:original
=
2.gg
8ddL
8eeJ
=
4ff
4ff
4gg
8ffL
8eeJ
=
2dd
4dd
8eeL
8ffJ
=
4gg
4gg
8ggL
8aa
8gg
8ffJ
=
2ee
4ee
8ccL
8ddJ
=
4ee
4ee
4ff
4gg
=
8aaL
8bb
8ccc
8bbJ
4aa
4aa
=
8ggL
8aa
8gg
8ffJ
4ee
4dd
!!linebreak:original
=
4cc
8ccL
8ddJ
8ee-XL
8gg
8ff
8ccJ
=
4dd
4bb
4bb
4bb
=
4cc
8ccL
8ddJ
8ee-XL
8gg
8ff
8ccJ
=
4dd
4bb
4bb
4bb
=
2ccc
2ee
=
2cc
2r
==
*-
